static/assets/img/icons/theme/design/color-profile.svg

<svg height="24" viewBox="0 0 24 24" width="24" xmlns="http://www.w3.org/2000/svg"><g fill="none" fill-rule="evenodd"><path d="m0 0h24v24h-24z" opacity="0"/><g fill="#000"><path d="m12 10.9996338c.8356605-.627689 1.8743941-.9996338 3-.9996338 2.7614237 0 5 2.2385763 5 5s-2.2385763 5-5 5c-1.1256059 0-2.1643395-.3719448-3-.9996338-.8356605.627689-1.8743941.9996338-3 .9996338-2.76142375 0-5-2.2385763-5-5s2.23857625-5 5-5c1.1256059 0 2.1643395.3719448 3 .9996338zm1.3336047 1.5047202c.4238693.7344486.6663953 1.5867248.6663953 2.495646 0 .9088933-.2425111 1.761145-.6663562 2.4955783.4852448.325091 1.0602028.5044217 1.6663562.5044217 1.6568542 0 3-1.3431458 3-3s-1.3431458-3-3-3c-.6069413 0-1.1824029.18044-1.6663953.504354z" fill-rule="nonzero" opacity=".3"/><circle cx="12" cy="9" r="5"/></g></g></svg>

<svg width="24px" height="24px" viewBox="0 0 24 24" version="1.1" xmlns="http://www.w3.org/2000/svg" xmlns:xlink="http://www.w3.org/1999/xlink">
    <title>Icon For Color-profile</title>
    <g stroke="none" stroke-width="1" fill="none" fill-rule="evenodd">
        <rect opacity="0" x="0" y="0" width="24" height="24"></rect>
        <path d="M12,10.9996338 C12.8356605,10.3719448 13.8743941,10 15,10 C17.7614237,10 20,12.2385763 20,15 C20,17.7614237 17.7614237,20 15,20 C13.8743941,20 12.8356605,19.6280552 12,19.0003662 C11.1643395,19.6280552 10.1256059,20 9,20 C6.23857625,20 4,17.7614237 4,15 C4,12.2385763 6.23857625,10 9,10 C10.1256059,10 11.1643395,10.3719448 12,10.9996338 Z M13.3336047,12.504354 C13.757474,13.2388026 14,14.0910788 14,15 C14,15.9088933 13.7574889,16.761145 13.3336438,17.4955783 C13.8188886,17.8206693 14.3938466,18 15,18 C16.6568542,18 18,16.6568542 18,15 C18,13.3431458 16.6568542,12 15,12 C14.3930587,12 13.8175971,12.18044 13.3336047,12.504354 Z" fill="#000000" fill-rule="nonzero" opacity="0.3"></path>
        <circle fill="#000000" cx="12" cy="9" r="5"></circle>
    </g>
</svg>
